src/assets/img/stamp/Stamp.svg

<svg width="102" height="102" viewBox="0 0 102 102" fill="none" xmlns="http://www.w3.org/2000/svg">
<g clip-path="url(#clip0_1252_8044)">
<path opacity="0.6" d="M50.9174 96.347C74.174 96.347 93.0272 77.4938 93.0272 54.2372C93.0272 30.9806 74.174 12.1274 50.9174 12.1274C27.6608 12.1274 8.80762 30.9806 8.80762 54.2372C8.80762 77.4938 27.6608 96.347 50.9174 96.347Z" fill="#DFD7EB"/>
<path d="M26.5742 22.5043C32.7545 17.7636 40.3813 14.7731 48.7476 14.3188C50.2405 14.2376 51.7195 14.24 53.18 14.3188" stroke="#7F72B3" stroke-width="1.98205" stroke-miterlimit="10"/>
<path d="M11.2103 59.4744C11.0828 58.4868 10.9901 57.4854 10.9368 56.4746C10.3827 46.2561 13.7093 36.7237 19.6323 29.3125" stroke="#7F72B3" stroke-width="1.98205" stroke-miterlimit="10"/>
<path d="M17.2088 75.9289C15.607 73.4368 14.2717 70.7524 13.2471 67.9126" stroke="#7F72B3" stroke-width="1.98205" stroke-miterlimit="10"/>
<path d="M88.6947 67.6182C83.4695 82.4244 69.7459 93.3801 53.092 94.2865C44.786 94.7386 36.9343 92.6244 30.3066 88.6371" stroke="#7F72B3" stroke-width="1.98205" stroke-miterlimit="10"/>
<path d="M89.8108 65.7891C89.7459 66.0047 89.1014 67.938 89.0342 68.1536" stroke="#7F72B3" stroke-width="0.975955" stroke-miterlimit="10"/>
<path d="M64.0508 16.4629C78.9497 21.6394 89.9959 35.4071 90.9046 52.1304C91.1596 56.8456 90.5893 61.4148 89.319 65.6964" stroke="#7F72B3" stroke-width="1.98205" stroke-miterlimit="10"/>
<path d="M19.6545 29.333C10.3007 41.0445 7.93844 57.5545 14.9533 71.918C15.6348 73.3135 16.3882 74.6535 17.2042 75.9331" stroke="#7F72B3" stroke-width="1.98205" stroke-miterlimit="10"/>
<path d="M56.8633 14.6938C58.2287 14.8978 59.5732 15.1714 60.8946 15.5098" stroke="#7F72B3" stroke-width="1.98205" stroke-miterlimit="10"/>
<path d="M14.7412 57.5246C14.7041 57.112 14.6762 56.6994 14.6531 56.2844C14.0411 45.0204 18.6311 34.679 26.3274 27.5923" stroke="#7F72B3" stroke-width="1.11041" stroke-miterlimit="10"/>
<path d="M41.7913 89.4713C40.2844 89.0819 38.8147 88.5951 37.3867 88.0225" stroke="#7F72B3" stroke-width="1.11041" stroke-miterlimit="10"/>
<path d="M78.4307 77.9941C72.2063 85.2269 63.1562 90.0116 52.875 90.5703C52.4021 90.5958 51.9315 90.612 51.4609 90.619" stroke="#7F72B3" stroke-width="1.11041" stroke-miterlimit="10"/>
<path d="M85.5484 65.2231C84.431 68.77 82.7805 72.0896 80.6895 75.087" stroke="#7F72B3" stroke-width="1.11041" stroke-miterlimit="10"/>
<path d="M14.6064 54.7402C14.6204 56.4418 14.7525 58.1364 15.0005 59.8124" stroke="#7F72B3" stroke-width="1.11041" stroke-miterlimit="10"/>
<path d="M57.0723 18.5259C73.4039 21.3239 86.2257 35.1032 87.1623 52.3458C87.248 53.9037 87.2318 55.4452 87.1229 56.9613" stroke="#7F72B3" stroke-width="1.11041" stroke-miterlimit="10"/>
<path d="M29.4238 25.0374C34.9202 20.9968 41.6175 18.4561 48.9383 18.0597C50.3524 17.9832 51.7526 17.9878 53.1319 18.0713" stroke="#7F72B3" stroke-width="1.11041" stroke-miterlimit="10"/>
<path d="M39.9957 72.8012C35.7697 70.8934 31.3002 66.0716 32.0444 54.0796C32.0444 54.0796 24.3967 34.2035 44.9775 25.916C65.5583 17.6262 74.2863 37.0386 74.2863 37.0386C74.2863 37.0386 89.2316 50.2361 78.0904 62.5387L76.171 63.7256" stroke="#5C4996" stroke-width="1.94264" stroke-linecap="round" stroke-linejoin="round"/>
<path d="M47.3137 73.9048C47.3137 73.9048 47.0193 73.9674 46.041 74.1041" stroke="#5C4996" stroke-width="1.94264" stroke-miterlimit="10" stroke-linecap="round"/>
<path d="M46.1094 73.7729C46.1094 73.7729 45.509 73.7822 45.0176 73.7451" stroke="#5C4996" stroke-width="1.26109" stroke-miterlimit="10" stroke-linecap="round"/>
<path d="M41.8511 72.9636C41.8511 72.9636 40.6735 72.6461 40.1982 72.5093" stroke="#5C4996" stroke-width="1.26109" stroke-miterlimit="10" stroke-linecap="round"/>
<path d="M62.372 70.5044C59.4164 71.6148 56.3564 72.454 53.2314 73.0104" stroke="#5C4996" stroke-width="1.94264" stroke-miterlimit="10"/>
<path d="M33.4056 34.9436L29.2074 30.5507L25.5261 34.3455C25.3986 34.4754 25.2502 34.5843 25.0833 34.6562C24.5131 34.9019 23.1963 35.2983 22.7814 33.9654C22.6376 33.5017 22.7744 32.9917 23.0966 32.6278L27.0376 28.2L24.1282 25.4321L20.9593 28.5524C20.7877 28.7541 20.5837 28.9256 20.3519 29.0554C19.5406 29.5144 18.1218 29.5863 17.999 28.1328C17.9665 27.7619 18.1126 27.3956 18.3467 27.1059L22.021 23.1139L18.5739 19.7224C18.0847 19.2403 17.8066 18.5471 17.941 17.8725C18.0847 17.1493 18.6249 16.4376 20.2801 16.7019C20.7205 16.7714 21.1262 16.9963 21.4415 17.3115L36.2361 32.28" stroke="#5C4996" stroke-width="1.94264" stroke-miterlimit="10"/>
<path d="M56.9363 24.4744L56.9108 18.3984L62.1939 18.5769C62.3771 18.5839 62.5579 18.5584 62.7294 18.4935C63.309 18.2732 64.5353 17.645 63.9071 16.3978C63.6892 15.9643 63.2371 15.6908 62.7526 15.6537L56.8436 15.2016L57.0174 11.1889L61.466 11.2376C61.7303 11.2631 61.9946 11.2445 62.2519 11.1796C63.1537 10.9478 64.2247 10.0136 63.3067 8.88228C63.0725 8.59251 62.7132 8.43023 62.3446 8.38387L56.9293 8.05933L57.0592 3.2236C57.0777 2.5351 56.7972 1.8466 56.2316 1.45251C55.6265 1.0306 54.7456 0.893825 53.7349 2.23142C53.466 2.58842 53.3292 3.03119 53.3223 3.47628L53.0557 24.5207" stroke="#5C4996" stroke-width="1.94264" stroke-miterlimit="10"/>
<path d="M46.9629 35.3003L45.5535 32.0131C45.5535 32.0131 45.5488 32.0061 45.5465 32.0038L37.8548 26.5491C37.8339 26.5352 37.8084 26.5584 37.8223 26.5793L42.9316 35.087C42.9316 35.087 42.9432 35.0986 42.9501 35.0986L46.9421 35.3327C46.9583 35.3327 46.9722 35.3165 46.9652 35.3003H46.9629Z" fill="#5C4996" stroke="#5C4996" stroke-width="1.94264" stroke-linejoin="round"/>
<path d="M47.7347 31.2594L49.2137 34.5211C49.2207 34.535 49.2392 34.5397 49.2508 34.5281L51.9399 31.9132C51.9399 31.9132 51.9492 31.8992 51.9469 31.8923L49.7098 22.1443C49.7052 22.1212 49.6704 22.1212 49.6658 22.1443L47.7324 31.2455C47.7324 31.2455 47.7324 31.2548 47.7324 31.2594H47.7347Z" fill="#5C4996" stroke="#5C4996" stroke-width="1.94264" stroke-linejoin="round"/>
<path d="M38.8135 45.222L36.0711 40.2078C36.0711 40.2078 36.0664 40.2032 36.0618 40.2032L21.8606 38.3208C21.8606 38.3208 21.8444 38.3347 21.8513 38.3393L33.2939 47.0603C33.2939 47.0603 33.3008 47.0627 33.3032 47.0603L38.8042 45.2359C38.8042 45.2359 38.8135 45.2267 38.8112 45.2197L38.8135 45.222Z" fill="#5C4996" stroke="#5C4996" stroke-width="1.94264" stroke-linejoin="round"/>
<path d="M60.5895 36.4385L59.085 30.9259C59.085 30.9259 59.085 30.9189 59.085 30.9166L68.003 19.7082C68.003 19.7082 68.0239 19.7059 68.0215 19.7175L65.8332 33.9372C65.8332 33.9372 65.8309 33.9442 65.8262 33.9465L60.5987 36.4501C60.5987 36.4501 60.5848 36.4501 60.5825 36.4432L60.5895 36.4385Z" fill="#5C4996" stroke="#5C4996" stroke-width="1.94264" stroke-linejoin="round"/>
<path d="M39.933 57.4944L37.0469 54.0496C37.0469 54.0496 37.04 54.0449 37.0376 54.0449L26.877 55.1159C26.877 55.1159 26.8631 55.1321 26.8747 55.1368L36.2703 59.2701C36.2703 59.2701 36.2773 59.2701 36.2796 59.2701L39.933 57.5106C39.933 57.5106 39.9423 57.499 39.9377 57.4944H39.933Z" fill="#5C4996" stroke="#5C4996" stroke-width="1.94264" stroke-linejoin="round"/>
<path d="M40.7474 60.0725L38.1766 61.1087C38.1766 61.1087 38.1673 61.1134 38.165 61.118L35.2904 65.9074C35.2788 65.9282 35.2997 65.9514 35.3206 65.9398L40.5179 63.2021C40.5179 63.2021 40.5295 63.1905 40.5295 63.1835L40.7776 60.0934C40.7776 60.0772 40.7613 60.0632 40.7451 60.0702L40.7474 60.0725Z" fill="#5C4996" stroke="#5C4996" stroke-width="1.94264" stroke-linejoin="round"/>
<path d="M69.6895 45.4586L69.3789 40.9753C69.3789 40.9753 69.3789 40.9683 69.3835 40.966L77.4439 34.686C77.4439 34.686 77.4647 34.6884 77.4601 34.6999L73.5632 44.1952C73.5632 44.1952 73.5586 44.1999 73.5563 44.2022L69.7058 45.4702C69.7058 45.4702 69.6919 45.4679 69.6919 45.4609L69.6895 45.4586Z" fill="#5C4996" stroke="#5C4996" stroke-width="1.94264" stroke-linejoin="round"/>
<path d="M70.9205 47.9898L73.4913 46.9536C73.4913 46.9536 73.5006 46.9536 73.5052 46.9536L78.8996 48.4094C78.9228 48.4164 78.9228 48.4465 78.8996 48.4535L73.2572 50.0878C73.2572 50.0878 73.241 50.0878 73.2363 50.0832L70.9135 48.0316C70.8996 48.02 70.9042 47.9991 70.9205 47.9922V47.9898Z" fill="#5C4996" stroke="#5C4996" stroke-width="1.94264" stroke-linejoin="round"/>
<path d="M40.4912 48.9964C40.4912 48.9964 46.7109 48.0761 49.1658 49.8958C49.1658 49.8958 45.6608 50.7466 42.7468 54.5855" stroke="#5C4996" stroke-width="1.94264" stroke-miterlimit="10" stroke-linecap="round"/>
<path d="M63.3208 39.6909C63.3208 39.6909 58.2046 43.3444 57.6992 46.358C57.6992 46.358 60.8149 44.5382 65.5741 45.2801" stroke="#5C4996" stroke-width="1.94264" stroke-miterlimit="10" stroke-linecap="round"/>
<path d="M52.5693 58.8323C52.5693 58.8323 56.7282 56.8896 55.9585 53.1504C55.9585 53.1504 59.0092 56.5002 62.6952 54.7476" stroke="#5C4996" stroke-width="1.94264" stroke-linecap="round" stroke-linejoin="round"/>
<path d="M18.8245 72.201C18.6576 71.5171 17.9738 70.2282 15.44 68.4293C11.5339 65.6567 12.4588 62.0543 12.4588 62.0543C12.4588 62.0543 13.4464 58.7741 16.154 59.145C18.1036 59.4116 19.8167 61.2916 20.6235 62.3255C20.9179 62.7034 21.152 63.123 21.3212 63.5727C21.7176 64.6251 22.6403 66.8738 23.6719 68.0607" stroke="#5C4996" stroke-width="1.66445" stroke-miterlimit="10"/>
<path d="M38.376 82.8763C37.9611 83.7874 37.3676 84.6637 36.5748 85.482C32.3557 89.8517 25.4661 89.4971 20.8622 85.0508C16.2583 80.6045 15.8943 74.0765 20.1134 69.7068C24.3325 65.337 30.2276 66.2434 34.8292 70.6897C35.9489 71.7722 36.8785 72.9429 37.5809 74.1623" stroke="#5C4996" stroke-width="1.94264" stroke-miterlimit="10"/>
<path d="M27.5576 78.4371L35.7431 69.9502" stroke="#5C4996" stroke-width="1.94264" stroke-miterlimit="10" stroke-linecap="round"/>
<path d="M41.7905 89.4715L41.204 87.8651L45.9493 86.4092L47.2822 90.0604L58.1893 86.0777L58.8616 87.9161L43.2973 93.6002L41.7882 89.4692M49.7442 82.4961C46.9971 84.0261 39.8548 87.1348 36.155 88.4863L35.485 86.648C36.8574 86.1473 38.6772 85.4263 40.5549 84.6312L39.9382 82.9389C37.3488 83.3006 35.3992 82.3733 34.5856 80.1432C33.5563 77.3243 35.237 74.9319 38.8904 73.599C42.5416 72.266 45.3697 73.0101 46.399 75.829C47.2127 78.0591 46.3202 80.025 44.1063 81.4159L44.6256 82.8369C46.4106 82.0186 47.9893 81.2466 48.9815 80.6903L49.7511 82.4938L49.7442 82.4961ZM38.9901 78.5344C39.6438 80.324 40.4598 80.8873 41.4149 80.5373C42.37 80.1872 42.632 79.2321 41.9782 77.4425C41.3338 75.6784 40.5085 75.0895 39.5534 75.4396C38.5983 75.7896 38.3457 76.7702 38.9901 78.5344ZM53.4486 74.6166L56.7335 73.4181L57.4034 75.2565L54.1186 76.455L56.9375 84.1745L52.0368 85.9641L45.5482 68.1953L50.5393 66.6514L53.4486 74.6166Z" stroke="#5C4895" stroke-width="1.30282" stroke-miterlimit="10"/>
<path d="M78.383 69.1781L79.046 70.9909L64.1679 76.4224L61.9402 70.3187L71.5977 66.7927L70.7307 64.4143L61.0732 67.9402L60.4102 66.1274L74.7226 60.8999L76.9156 66.904L67.2581 70.43L68.1622 72.9058L78.383 69.1735V69.1781ZM78.4247 75.9125L84.1112 73.8354L84.7835 75.6737L62.2346 83.9079L61.5646 82.0695L67.2743 79.9855L66.1384 76.8722L70.427 75.3051L71.5629 78.4184L74.1361 77.4795L73.0002 74.3662L77.2888 72.7991L78.4247 75.9125Z" stroke="#5C4895" stroke-width="1.30282" stroke-miterlimit="10"/>
<path d="M81.6025 57.8352L86.8973 55.9019L89.3453 67.3977L87.1384 68.2044L81.6025 57.8375V57.8352ZM87.6878 72.7527C87.2056 71.429 87.7434 70.3163 89.0161 69.8504C90.2656 69.3937 91.3945 69.899 91.8767 71.2227C92.3612 72.5464 91.8234 73.6591 90.5716 74.1158C89.2966 74.5818 88.1676 74.0764 87.6855 72.7527H87.6878Z" stroke="#5C4895" stroke-width="1.30282" stroke-miterlimit="10"/>
<path d="M36.661 100.001L34.9247 97.4204C34.7693 97.1886 34.4842 97.0843 34.2153 97.1608L31.2248 98.0139C30.6267 98.1854 30.1608 97.49 30.5433 97.0009L32.4604 94.5529C32.632 94.3349 32.6436 94.0289 32.4882 93.7994L30.7519 91.2193C30.4042 90.7023 30.9212 90.044 31.5053 90.2596L34.4262 91.3283C34.6882 91.4233 34.9803 91.3398 35.1518 91.1219L37.069 88.6739C37.4515 88.1848 38.2373 88.4723 38.2165 89.0935L38.1029 92.2022C38.0936 92.4804 38.2628 92.7331 38.5248 92.8281L41.4457 93.8968C42.0299 94.1101 41.9997 94.9469 41.4017 95.1162L38.4112 95.9693C38.1446 96.0458 37.9568 96.2845 37.9452 96.5627L37.8317 99.6714C37.8085 100.293 37.0041 100.522 36.6587 100.005L36.661 100.001Z" fill="#5C4996"/>
<path d="M52.3369 101.957L49.9167 100.005C49.7011 99.8311 49.3951 99.8148 49.1633 99.9678L46.5576 101.667C46.036 102.006 45.387 101.482 45.6072 100.9L46.7153 97.9951C46.815 97.7354 46.7361 97.441 46.5182 97.2671L44.098 95.3152C43.6135 94.9258 43.9126 94.1446 44.5339 94.1747L47.6402 94.3323C47.9184 94.3462 48.1734 94.1793 48.2731 93.9197L49.3812 91.015C49.6037 90.4331 50.4383 90.4772 50.6005 91.0776L51.4119 94.0796C51.4838 94.3486 51.7225 94.5386 51.9984 94.5526L55.1048 94.7102C55.726 94.7426 55.944 95.5494 55.4224 95.8878L52.8167 97.5871C52.5849 97.7401 52.4759 98.0229 52.5478 98.2918L53.3592 101.294C53.5214 101.894 52.8214 102.351 52.3369 101.961V101.957Z" fill="#5C4996"/>
<path d="M60.8697 100.476L61.1154 97.3761C61.1386 97.0979 60.9786 96.8383 60.7213 96.7316L57.8491 95.5401C57.2742 95.3013 57.3414 94.4691 57.9464 94.323L60.9717 93.5998C61.2429 93.5349 61.4399 93.303 61.4631 93.0272L61.7088 89.9278C61.7575 89.3088 62.5712 89.1141 62.8958 89.645L64.5185 92.297C64.6645 92.5334 64.945 92.6516 65.2163 92.5867L68.2415 91.8635C68.8465 91.7197 69.2823 92.4314 68.879 92.9043L66.8575 95.2665C66.6767 95.4775 66.6535 95.7812 66.7973 96.0176L68.42 98.6696C68.7445 99.2005 68.1998 99.8357 67.6272 99.5969L64.7549 98.4054C64.4976 98.2987 64.2009 98.3706 64.0224 98.5816L62.0009 100.944C61.5976 101.417 60.8233 101.094 60.8743 100.476H60.8697Z" fill="#5C4996"/>
<path d="M75.3219 95.6608L74.4688 92.6704C74.3923 92.4038 74.1536 92.216 73.8754 92.2044L70.7667 92.0908C70.1454 92.0676 69.9159 91.2632 70.4329 90.9178L73.013 89.1815C73.2448 89.0262 73.3492 88.741 73.2727 88.4721L72.4196 85.4817C72.248 84.8836 72.9435 84.4176 73.4326 84.8001L75.8806 86.7173C76.0985 86.8888 76.4045 86.9004 76.634 86.7451L79.2142 85.0088C79.7311 84.661 80.3895 85.178 80.1739 85.7622L79.1052 88.6831C79.0102 88.945 79.0936 89.2371 79.3115 89.4087L81.7595 91.3258C82.2487 91.7083 81.9612 92.4942 81.3399 92.4733L78.2313 92.3597C77.9531 92.3504 77.7004 92.5197 77.6053 92.7816L76.5367 95.7025C76.3234 96.2867 75.4865 96.2566 75.3173 95.6585L75.3219 95.6608Z" fill="#5C4996"/>
<path d="M87.4635 85.6647L85.5464 83.2167C85.3748 82.9988 85.0827 82.9154 84.8208 83.0104L81.8999 84.0768C81.3157 84.2901 80.801 83.6317 81.1465 83.1147L82.8828 80.5346C83.0381 80.3051 83.0265 79.9991 82.855 79.7812L80.9378 77.3332C80.5553 76.8441 81.0213 76.1509 81.6194 76.3202L84.6098 77.1732C84.8764 77.2497 85.1639 77.1454 85.3192 76.9136L87.0555 74.3335C87.4032 73.8188 88.2076 74.0483 88.2285 74.6696L88.3398 77.7783C88.349 78.0565 88.5368 78.2952 88.8057 78.3717L91.7962 79.2248C92.3943 79.3964 92.4244 80.2309 91.8402 80.4442L88.9193 81.5106C88.6574 81.6056 88.4881 81.8583 88.4974 82.1365L88.6087 85.2452C88.6319 85.8664 87.846 86.1539 87.4612 85.6647H87.4635Z" fill="#5C4996"/>
</g>
<defs>
<clipPath id="clip0_1252_8044">
<rect width="102" height="102" fill="white"/>
</clipPath>
</defs>
</svg>

<svg width="102" height="102" fill="none" xmlns="http://www.w3.org/2000/svg"><g clip-path="url(#a)"><path opacity=".6" d="M50.917 96.347c23.257 0 42.11-18.853 42.11-42.11 0-23.256-18.853-42.11-42.11-42.11-23.256 0-42.11 18.854-42.11 42.11 0 23.257 18.854 42.11 42.11 42.11Z" fill="#DFD7EB"/><path d="M26.574 22.504a39.857 39.857 0 0 1 22.174-8.185 40.958 40.958 0 0 1 4.432 0M11.21 59.474a39.81 39.81 0 0 1-.273-3 39.902 39.902 0 0 1 8.695-27.161M17.209 75.929a39.815 39.815 0 0 1-3.962-8.016M88.695 67.618C83.47 82.424 69.745 93.38 53.092 94.287a39.85 39.85 0 0 1-22.785-5.65" stroke="#7F72B3" stroke-width="1.982" stroke-miterlimit="10"/><path d="M89.81 65.79c-.064.215-.709 2.148-.776 2.364" stroke="#7F72B3" stroke-width=".976" stroke-miterlimit="10"/><path d="M64.05 16.463c14.9 5.176 25.946 18.944 26.855 35.667a40.012 40.012 0 0 1-1.586 13.566M19.654 29.333c-9.353 11.712-11.716 28.221-4.7 42.585a40.621 40.621 0 0 0 2.25 4.015M56.863 14.694c1.366.204 2.71.477 4.032.816" stroke="#7F72B3" stroke-width="1.982" stroke-miterlimit="10"/><path d="M14.741 57.525a36.458 36.458 0 0 1-.088-1.24c-.612-11.265 3.978-21.606 11.674-28.693M41.791 89.471a36.107 36.107 0 0 1-4.404-1.449M78.43 77.994c-6.224 7.233-15.274 12.018-25.555 12.576-.473.026-.944.042-1.414.049M85.548 65.223a36.315 36.315 0 0 1-4.859 9.864" stroke="#7F72B3" stroke-width="1.11" stroke-miterlimit="10"/><path d="M14.606 54.74c.014 1.702.146 3.396.395 5.072M57.072 18.526c16.332 2.798 29.154 16.577 30.09 33.82.086 1.558.07 3.1-.04 4.615M29.424 25.037a36.136 36.136 0 0 1 19.514-6.977 36.645 36.645 0 0 1 4.194.011" stroke="#7F72B3" stroke-width="1.11" stroke-miterlimit="10"/><path d="M39.996 72.801c-4.226-1.908-8.696-6.73-7.952-18.721 0 0-7.647-19.877 12.934-28.164 20.58-8.29 29.308 11.123 29.308 11.123s14.946 13.197 3.804 25.5l-1.919 1.187" stroke="#5C4996" stroke-width="1.943" stroke-linecap="round" stroke-linejoin="round"/><path d="M47.314 73.905s-.295.062-1.273.2" stroke="#5C4996" stroke-width="1.943" stroke-miterlimit="10" stroke-linecap="round"/><path d="M46.11 73.773s-.601.01-1.092-.028M41.851 72.964s-1.178-.318-1.653-.455" stroke="#5C4996" stroke-width="1.261" stroke-miterlimit="10" stroke-linecap="round"/><path d="M62.372 70.504a51.818 51.818 0 0 1-9.14 2.506M33.406 34.944l-4.199-4.393-3.68 3.795c-.128.13-.277.238-.444.31-.57.246-1.887.642-2.302-.69-.143-.464-.007-.974.316-1.338l3.94-4.428-2.909-2.768-3.169 3.12a2.228 2.228 0 0 1-.607.503c-.811.46-2.23.531-2.353-.922-.032-.371.114-.737.348-1.027l3.674-3.992-3.447-3.392c-.49-.482-.767-1.175-.633-1.85.144-.723.684-1.434 2.34-1.17.44.07.845.294 1.16.61L36.236 32.28M56.936 24.474l-.025-6.076 5.283.179c.183.007.364-.019.535-.084.58-.22 1.806-.848 1.178-2.095-.218-.434-.67-.707-1.154-.744l-5.91-.452.174-4.013 4.449.049a2.3 2.3 0 0 0 .786-.058c.902-.232 1.973-1.166 1.055-2.298-.235-.29-.594-.452-.962-.498l-5.416-.325.13-4.835c.019-.689-.262-1.377-.827-1.771-.605-.422-1.486-.56-2.497.778-.269.357-.406.8-.413 1.245l-.266 21.045" stroke="#5C4996" stroke-width="1.943" stroke-miterlimit="10"/><path d="m46.963 35.3-1.41-3.287-.006-.01-7.692-5.454c-.021-.014-.047.01-.033.03l5.11 8.508s.011.012.018.012l3.992.234c.016 0 .03-.017.023-.033h-.002ZM47.735 31.26l1.479 3.261c.007.014.025.019.037.007l2.689-2.615s.01-.014.007-.02l-2.237-9.749c-.005-.023-.04-.023-.044 0l-1.934 9.102v.013h.003ZM38.813 45.222l-2.742-5.014s-.005-.005-.01-.005l-14.2-1.882s-.017.014-.01.018l11.443 8.721s.007.003.01 0l5.5-1.824s.01-.01.007-.016l.002.002ZM60.59 36.438l-1.505-5.512v-.01l8.918-11.208s.02-.002.019.01l-2.189 14.22s-.002.006-.007.008L60.6 36.45s-.014 0-.016-.007l.007-.005ZM39.933 57.494l-2.886-3.444s-.007-.005-.01-.005l-10.16 1.07s-.014.017-.002.022l9.395 4.133h.01l3.653-1.76s.01-.011.005-.016h-.005ZM40.747 60.072l-2.57 1.037s-.01.004-.012.009l-2.875 4.79c-.011.02.01.043.03.032l5.198-2.738s.011-.011.011-.018l.249-3.09c0-.017-.017-.03-.033-.024l.002.002ZM69.69 45.459l-.311-4.484s0-.007.004-.009l8.06-6.28s.022.002.017.014l-3.897 9.495-.007.007-3.85 1.268s-.014-.002-.014-.01l-.002-.001ZM70.92 47.99l2.571-1.036h.014l5.395 1.455a.023.023 0 0 1 0 .044l-5.643 1.635s-.016 0-.02-.005l-2.323-2.051c-.014-.012-.01-.033.007-.04v-.002Z" fill="#5C4996" stroke="#5C4996" stroke-width="1.943" stroke-linejoin="round"/><path d="M40.491 48.996s6.22-.92 8.675.9c0 0-3.505.85-6.42 4.69M63.32 39.69s-5.115 3.654-5.62 6.668c0 0 3.115-1.82 7.874-1.078" stroke="#5C4996" stroke-width="1.943" stroke-miterlimit="10" stroke-linecap="round"/><path d="M52.57 58.832s4.158-1.942 3.389-5.682c0 0 3.05 3.35 6.736 1.598" stroke="#5C4996" stroke-width="1.943" stroke-linecap="round" stroke-linejoin="round"/><path d="M18.825 72.201c-.167-.684-.851-1.973-3.385-3.772-3.906-2.772-2.981-6.375-2.981-6.375s.987-3.28 3.695-2.909c1.95.267 3.663 2.147 4.47 3.18.294.378.528.798.697 1.248.397 1.052 1.32 3.3 2.35 4.488" stroke="#5C4996" stroke-width="1.664" stroke-miterlimit="10"/><path d="M38.376 82.876a9.256 9.256 0 0 1-1.801 2.606c-4.22 4.37-11.109 4.015-15.713-.431-4.604-4.447-4.968-10.975-.749-15.344 4.22-4.37 10.115-3.464 14.716.983 1.12 1.082 2.05 2.253 2.752 3.472" stroke="#5C4996" stroke-width="1.943" stroke-miterlimit="10"/><path d="m27.558 78.437 8.185-8.487" stroke="#5C4996" stroke-width="1.943" stroke-miterlimit="10" stroke-linecap="round"/><path d="m41.79 89.472-.586-1.607 4.745-1.456 1.333 3.651 10.907-3.982.673 1.838L43.297 93.6l-1.509-4.13m7.956-6.974c-2.747 1.53-9.89 4.639-13.589 5.99l-.67-1.838c1.372-.5 3.192-1.222 5.07-2.017l-.617-1.692c-2.59.362-4.539-.566-5.352-2.796-1.03-2.819.651-5.211 4.304-6.544 3.652-1.333 6.48-.589 7.509 2.23.814 2.23-.079 4.196-2.293 5.587l.52 1.42c1.785-.817 3.363-1.59 4.355-2.146l.77 1.804-.007.002ZM38.99 78.534c.654 1.79 1.47 2.353 2.425 2.003.955-.35 1.217-1.305.563-3.095-.644-1.764-1.47-2.352-2.425-2.002-.955.35-1.207 1.33-.563 3.094Zm14.459-3.917 3.285-1.199.67 1.838-3.285 1.199 2.819 7.72-4.901 1.79-6.489-17.77 4.991-1.544 2.91 7.966ZM78.383 69.178l.663 1.813-14.878 5.431-2.228-6.103 9.658-3.526-.867-2.379-9.658 3.526-.663-1.813L74.723 60.9l2.193 6.004-9.658 3.526.904 2.476 10.221-3.733v.005Zm.042 6.734 5.686-2.077.672 1.839-22.548 8.234-.67-1.838 5.71-2.084-1.137-3.114 4.289-1.567 1.136 3.113 2.573-.939L73 74.367 77.29 72.8l1.136 3.113ZM81.603 57.835l5.294-1.933 2.448 11.496-2.207.806-5.535-10.366v-.003Zm6.085 14.918c-.482-1.324.055-2.437 1.328-2.903 1.25-.456 2.378.049 2.86 1.373.485 1.323-.053 2.436-1.304 2.893-1.275.466-2.404-.04-2.886-1.363h.002Z" stroke="#5C4895" stroke-width="1.303" stroke-miterlimit="10"/><path d="m36.661 100.001-1.736-2.58a.64.64 0 0 0-.71-.26l-2.99.853c-.598.171-1.064-.524-.682-1.013l1.917-2.448a.64.64 0 0 0 .028-.754l-1.736-2.58c-.348-.517.17-1.175.753-.96l2.921 1.07a.643.643 0 0 0 .726-.207l1.917-2.448c.383-.49 1.168-.202 1.148.42l-.114 3.108c-.01.278.16.531.422.626l2.92 1.069c.585.213.555 1.05-.043 1.22l-2.99.852a.645.645 0 0 0-.467.594l-.113 3.108c-.023.622-.828.851-1.173.334l.002-.004ZM52.337 101.957l-2.42-1.952a.64.64 0 0 0-.754-.037l-2.605 1.699c-.522.339-1.171-.185-.95-.767l1.107-2.905c.1-.26.021-.554-.197-.728l-2.42-1.952c-.484-.39-.185-1.17.436-1.14l3.106.157a.644.644 0 0 0 .633-.412l1.108-2.905c.223-.582 1.057-.538 1.22.063l.81 3.002a.64.64 0 0 0 .587.473l3.107.157c.621.033.839.84.317 1.178l-2.605 1.7a.644.644 0 0 0-.27.704l.812 3.002c.162.6-.538 1.057-1.022.667v-.004ZM60.87 100.476l.245-3.1a.64.64 0 0 0-.394-.644L57.85 95.54c-.575-.239-.508-1.07.097-1.217l3.026-.723a.644.644 0 0 0 .491-.573l.246-3.1c.048-.618.862-.813 1.187-.282l1.623 2.652a.644.644 0 0 0 .697.29l3.026-.724c.605-.143 1.04.568.637 1.041l-2.022 2.362a.642.642 0 0 0-.06.752l1.623 2.652c.325.53-.22 1.166-.793.927l-2.872-1.192a.64.64 0 0 0-.733.177l-2.021 2.362c-.403.473-1.178.15-1.127-.468h-.004ZM75.322 95.66l-.853-2.99a.645.645 0 0 0-.594-.466l-3.108-.113c-.622-.023-.851-.828-.334-1.173l2.58-1.737a.64.64 0 0 0 .26-.709l-.853-2.99c-.172-.598.523-1.064 1.013-.682l2.448 1.917a.64.64 0 0 0 .753.028l2.58-1.736c.517-.348 1.175.169.96.753l-1.069 2.921a.644.644 0 0 0 .206.726l2.448 1.917c.49.382.202 1.168-.42 1.147l-3.108-.113a.642.642 0 0 0-.626.422l-1.068 2.92c-.214.585-1.05.555-1.22-.043l.005.002ZM87.463 85.665l-1.917-2.448a.644.644 0 0 0-.725-.207L81.9 84.077c-.584.213-1.099-.445-.754-.962l1.737-2.58a.64.64 0 0 0-.028-.754l-1.917-2.448c-.383-.489.083-1.182.681-1.013l2.99.853a.642.642 0 0 0 .71-.26l1.736-2.58c.348-.514 1.153-.285 1.173.337l.112 3.108c.009.278.197.517.466.594l2.99.853c.598.171.628 1.006.044 1.22l-2.92 1.066a.642.642 0 0 0-.423.626l.112 3.108c.023.621-.763.909-1.148.42h.002Z" fill="#5C4996"/></g><defs><clipPath id="a"><path fill="#fff" d="M0 0h102v102H0z"/></clipPath></defs></svg>
